X:11
T:Johnny Young's Shuffle
C:Johnny Young
N:Transcribed by Rich DelGrosso Tabledited by Mike Stangeland 
L:1/8
Q:1/4=190
M:12/8
K:G
z8D D2D | "D7"F2F d2d c2c c2c | "C7"^A2A G2G =F2F DCB, | "G7"G,3 G,^A,B, G2G DCB, | 
"D7"G,2[dF] [d2F2][dF] [d2F2C2][dF] [d2F2C2][dFC] | "G7"G,2[d=F] [d2F2][dF] G,2[dF] [d2F2][dF] | 
"C7"^A,2[GA,] [G2A,2][GA,] [G2A,2][GA,] [G2A,2][GA,] | "G7"[d<=F<] | G,2[d=F] [d2F2][dF] G,2[dF] [d2F2][dF] | 
"C7"^A,2[GA,] [G2A,2][GA,] [G2A,2][GA,] [G2A,2][GA,] | ^A,2[GA,] [G2A,2][GA,] [G2A,2][GA,] [G2A,2][GA,] | 
"G7"G,3 G,^A,B, G2G DCB, | G,2[d=F] [d2F2][dF] G,2[dF] [d2F2][dF] | "D7"F2[dF] [d2F2A,2][dFA,] [d2F2A,2][dF] [d2F2A,2][dFA,] | 
"C7"^A,2[GA,] [G2A,2][GA,] [G2A,2][GA,] [G2A,2][GA,] | "G7"G,3 G,^A,B, G2G DCB, | 
"D7"G,2F [d2F2][dF] [d2F2C2][dF] [d2F2C2][dFC] | "Begin first solo""G7"G,8g g2g | 
g2g =fd^A G6 | "C7"g2g =fdc BcB cBG | "G7"G7/1G2 DCB, | G3 [G2B,2][G4B,4] DEG | 
"C7"^A2A A=AG _BG2 GGG | B2B c2c B2G DCB, | "G7"G2G GGG GGG GGG | G,2B, [G2B,2][GB,] [G2B,2]D D2D | 
"D7"F2F d2d c2c c2c | "C7"^A2A G2G =F2F DCB, | "G7"G,3 G,^A,B, G2G DCB, | "D7"G,2[dF] [d2F2][dF] [d2F2G,2][dF] [d2F2G,2][dFG,] | 
"G7"z< | "Begin second sol""G7"ddd ddd ddd ddd | "C7"GGG GGG GGG GGG | "G7"[d=F][dF][dF] [dF][dF][dF] [dF][dF][dF] [dF][dF][dF] | 
GeG F^dF [=d3=F3] DEG | "C7"^A2A A=AG _BG4z | z3 ega g^a=a g[=fd]c | "G7"B3 d=fd fdf cfB | 
G3 DCB, G2G G=FD | "D7"F2d dcA F2D DEG | "C7"^A2A cAc ^c=cB DCB, | "G7"G2G =F2F D2D DCB, | 
"D7"G2G FDD D2D DEG | G,< | 


